src/assets/place.svg

<svg width="16" height="17" viewBox="0 0 16 17" fill="none" xmlns="http://www.w3.org/2000/svg">
<path d="M8.00033 8.49992C7.26699 8.49992 6.66699 7.89992 6.66699 7.16659C6.66699 6.43325 7.26699 5.83325 8.00033 5.83325C8.73366 5.83325 9.33366 6.43325 9.33366 7.16659C9.33366 7.89992 8.73366 8.49992 8.00033 8.49992ZM12.0003 7.29992C12.0003 4.87992 10.2337 3.16659 8.00033 3.16659C5.76699 3.16659 4.00033 4.87992 4.00033 7.29992C4.00033 8.85992 5.30033 10.9266 8.00033 13.3933C10.7003 10.9266 12.0003 8.85992 12.0003 7.29992ZM8.00033 1.83325C10.8003 1.83325 13.3337 3.97992 13.3337 7.29992C13.3337 9.51325 11.5537 12.1333 8.00033 15.1666C4.44699 12.1333 2.66699 9.51325 2.66699 7.29992C2.66699 3.97992 5.20033 1.83325 8.00033 1.83325Z" fill="#4A53F5"/>
</svg>

<svg fill="none" xmlns="http://www.w3.org/2000/svg" viewBox="0 0 16 17"><path d="M8 8.5c-.733 0-1.333-.6-1.333-1.333 0-.734.6-1.334 1.333-1.334.734 0 1.334.6 1.334 1.334C9.334 7.9 8.734 8.5 8 8.5Zm4-1.2c0-2.42-1.766-4.133-4-4.133-2.233 0-4 1.713-4 4.133 0 1.56 1.3 3.627 4 6.093 2.7-2.466 4-4.533 4-6.093ZM8 1.833c2.8 0 5.334 2.147 5.334 5.467 0 2.213-1.78 4.833-5.334 7.867C4.447 12.133 2.667 9.513 2.667 7.3 2.667 3.98 5.2 1.833 8 1.833Z" fill="#4A53F5"/></svg>
